clinic/img/icons/main_page/puls.svg

<svg width="511" height="115" viewBox="0 0 511 115" fill="none" xmlns="http://www.w3.org/2000/svg">
<path opacity="0.6" d="M0.014 65.0679H131.123L158.729 2.49688C159.629 0.44188 162.151 -0.54212 164.35 0.30288C165.477 0.73688 166.304 1.56888 166.714 2.55288L166.728 2.54788L208.759 101.801L245.691 43.3039C246.906 41.3869 249.552 40.7499 251.598 41.8819C252.268 42.2509 252.795 42.7689 253.15 43.3599L274.863 74.5039L305.901 43.6269C307.532 42.0059 310.261 41.9269 311.993 43.4509C312.321 43.7419 312.589 44.0649 312.796 44.4159H312.801L325.198 65.0989H510.951C510.78 67.8059 510.573 70.4979 510.323 73.1819H322.676V73.1729C321.17 73.1729 319.702 72.4289 318.911 71.1129L308.149 53.1549L277.388 83.7539H277.383C277.152 83.9849 276.889 84.1929 276.589 84.3729C274.594 85.5829 271.924 85.0569 270.631 83.1899L249.579 52.9969L211.765 112.889C211.299 113.692 210.541 114.353 209.562 114.713C207.345 115.53 204.832 114.514 203.959 112.44L162.607 14.7949L138.095 70.3489C137.536 71.9799 135.905 73.1579 133.98 73.1579H0.628C0.373 70.4739 0.166 67.7819 0 65.0749L0.014 65.0679ZM253.155 43.3509C253.894 44.5659 253.935 46.1129 253.123 47.4019L253.155 43.3509Z" fill="#95DCEF"/>
</svg>

<svg width="511" height="115" fill="none" xmlns="http://www.w3.org/2000/svg"><path opacity=".6" d="M.014 65.068h131.109l27.606-62.571c.9-2.055 3.422-3.04 5.621-2.194 1.127.434 1.954 1.266 2.364 2.25l.014-.005 42.031 99.253 36.932-58.497c1.215-1.917 3.861-2.554 5.907-1.422.67.369 1.197.887 1.552 1.478l21.713 31.144 31.038-30.877c1.631-1.621 4.36-1.7 6.092-.176.328.29.596.614.803.965h.005l12.397 20.683h185.753a272.036 272.036 0 01-.628 8.083H322.676v-.01c-1.506 0-2.974-.743-3.765-2.06l-10.762-17.957-30.761 30.599h-.005a4.102 4.102 0 01-.794.619c-1.995 1.21-4.665.684-5.958-1.183l-21.052-30.193-37.814 59.892a4.202 4.202 0 01-2.203 1.824c-2.217.817-4.73-.199-5.603-2.273l-41.352-97.645-24.512 55.554c-.559 1.63-2.19 2.809-4.115 2.809H.628A242.075 242.075 0 010 65.075l.014-.007zM253.155 43.35a3.818 3.818 0 01-.032 4.05l.032-4.05z" fill="#95DCEF"/></svg>
